X:55
T:Innocent,L’. CJF.055
T:L’Innocente. CJF.055
T:Brunswick Qudrill No.2. CJF.055
R:Quadrille
S:C.J.Fox MS, 1829/33, Beverley,E.Yorks.
N:On page. CJF.029 appears a title –
N:(No.s 1, 2, 3, & 5 From the Brunswick Quadrills);
N:this tune appears to be one of these.
B:Kidson Coll.Mitchell Lib.M1805
O:England
A:East Yorkshire
Z:vmp.P J Headford 2000 & 2008
M:6/8
L:1/8
Q:3/8=120
K:D
(FAd) (FAd)|(FAd)f2c|(cegb2a)|(fad’f’2d’)|\
(FAd) (FAd)|(FAd)f2d|e^ef gbc|e3d3||!
” f”^deAa2g|fedd’2a|(^ga=g fed)|(ced cBA)|\
(bd’b gdB)|(ad’b afd)|(ged cB^A)|B3-“~”B2=c|!
” f”c^AF fec|dcB bfd|B^GE edB|cBA aec|\
f2dg2d|a2db2_c’|agf fed|dcB ” D.C.”BAG|]

